juniorguru/images/logos/purestorage.svg

<?xml version="1.0" encoding="UTF-8"?>
<svg width="346px" height="61px" viewBox="0 0 346 61" version="1.1" xmlns="http://www.w3.org/2000/svg" xmlns:xlink="http://www.w3.org/1999/xlink">
    <!-- Generator: Sketch 51.2 (57519) - http://www.bohemiancoding.com/sketch -->
    <title>Group 28</title>
    <desc>Created with Sketch.</desc>
    <defs>
        <polygon id="path-1" points="0.000985714286 0.059456 67.2501107 0.059456 67.2501107 61 0.000985714286 61"/>
    </defs>
    <g id="Page-1" stroke="none" stroke-width="1" fill="none" fill-rule="evenodd">
        <g id="Group-28">
            <g id="Group-3">
                <mask id="mask-2" fill="white">
                    <use xlink:href="#path-1"/>
                </mask>
                <g id="Clip-2"/>
                <path d="M35.9844857,61.000496 L21.11745,61.000496 C18.0494143,61.000496 15.1908429,59.338896 13.6555929,56.667936 L1.14687857,34.866256 C-0.380978571,32.190336 -0.380978571,28.869616 1.14687857,26.196176 L13.6555929,4.396976 C15.1883786,1.721056 18.0494143,0.059456 21.11745,0.059456 L46.12995,0.059456 C49.1979857,0.059456 52.0565571,1.721056 53.5942714,4.396976 L66.1005214,26.196176 C67.6333071,28.867136 67.6333071,32.190336 66.1005214,34.866256 L62.8649143,40.056896 C61.3592357,42.683216 58.4982,44.342336 55.4277,44.342336 L40.5434143,44.342336 L48.6804857,30.518816 L41.1520929,17.404576 L26.0928429,17.404576 L18.5619857,30.528736 L35.9844857,61.000496 Z" id="Fill-1" fill="#FE5000" mask="url(#mask-2)"/>
            </g>
            <path d="M91.5097991,30.62631 C94.1697276,30.62631 95.865771,29.8146718 95.865771,27.0124104 C95.865771,24.2523442 94.4113152,23.4804192 91.8721805,23.4804192 L89.9370147,23.4804192 L89.9370147,30.62631 L91.5097991,30.62631 Z M89.9370147,45 L83,45 L83,18 L92.8409959,18 C99.1691113,18 103,20.9635962 103,26.5656371 C103,32.8601765 98.4443486,36.0273028 91.9929742,36.0273028 L89.9370147,36.0273028 L89.9370147,45 Z" id="Fill-4" fill="#222222"/>
            <path d="M113.853016,18 L113.853016,35.3489569 C113.853016,38.3798429 115.407309,39.2966676 117.597448,39.2966676 C119.67065,39.2966676 121.144548,38.0628556 121.144548,35.5489027 L121.144548,18 L128,18 L128,36.3462476 C128,41.7325928 123.695244,45 117.439095,45 C110.544664,45 107,42.2105121 107,35.7488486 L107,18 L113.853016,18 Z" id="Fill-6" fill="#222222"/>
            <polygon id="Fill-8" fill="#222222" points="158 18 175.718633 18 175.718633 24.0915694 165.004288 24.0915694 165.004288 28.1898501 174.209711 28.1898501 174.209711 34.2814195 165.004288 34.2814195 165.004288 38.9109129 176 38.9109129 176 45 158 45"/>
            <path d="M182.34738,39.8795031 C183.61242,40.731677 186.509287,42.1975155 189.735514,42.1975155 C192.470197,42.1975155 195.446909,41.3403727 195.446909,37.1962733 C195.446909,33.9465839 192.589964,32.8906832 189.328805,31.9962733 C185.408927,30.9403727 181.571389,29.4770186 181.571389,24.4782609 C181.571389,19.9664596 185.082063,17 190.184641,17 C193.857499,17 197.081231,18.7068323 199,20.6173913 L197.203493,22.7689441 C195.082617,20.9428571 192.712226,19.7627329 190.142223,19.7627329 C187.856668,19.7627329 184.919878,20.7391304 184.919878,24.152795 C184.919878,27.3627329 187.694483,28.2968944 191.205157,29.3552795 C194.960355,30.5329193 198.795398,31.9565217 198.795398,37.0745342 C198.795398,42.1552795 195.367064,45 189.653174,45 C185.733296,45 182.102856,43.4149068 181,42.5204969 L182.34738,39.8795031 Z" id="Fill-10" fill="#222222"/>
            <polygon id="Fill-12" fill="#222222" points="221 18 221 20.7603199 212.987747 20.7603199 212.987747 45 209.854627 45 209.854627 20.7603199 202 20.7603199 202 18"/>
            <path d="M234.218881,42.2770186 C239.987619,42.2770186 241.780013,36.7093168 241.780013,31.1838509 C241.780013,26.3888199 240.228388,19.7627329 234.177537,19.7627329 C228.372319,19.7627329 226.222419,25.4124224 226.222419,30.9403727 C226.222419,36.3018634 227.654875,42.2770186 234.218881,42.2770186 M233.900287,45 C227.097944,45 223,40.3267081 223,31.0596273 C223,20.6173913 228.887906,17 234.299138,17 C240.028963,17 245,20.6968944 245,31.0596273 C245,40.3664596 240.705063,45 233.900287,45" id="Fill-14" fill="#222222"/>
            <path d="M278.816927,34.0778707 L287.902857,34.0778707 L283.317736,20.884435 L278.816927,34.0778707 Z M272,45 L281.492615,18 L285.306523,18 L295,45 L291.632453,45 L288.67407,36.676841 L278.045714,36.676841 L275.164205,45 L272,45 Z" id="Fill-16" fill="#222222"/>
            <path d="M315.920261,42.5229814 C313.74556,44.026087 310.623656,45 307.185212,45 C300.269663,45 296,40.4906832 296,31.0621118 C296,20.5378882 301.929685,17 307.185212,17 C309.874592,17 313.31062,17.8546584 316,21.3900621 L313.74556,23.2186335 C312.008216,21.1068323 309.951915,19.7627329 307.146551,19.7627329 C302.166485,19.7627329 299.201643,23.9490683 299.201643,30.7763975 C299.201643,38.0931677 301.731545,42.3614907 307.46309,42.3614907 C309.519391,42.3614907 311.848737,41.6285714 312.798357,40.9354037 L312.798357,32.8931677 L306.827595,32.8931677 L306.827595,30.1279503 L315.920261,30.1279503 L315.920261,42.5229814 Z" id="Fill-18" fill="#222222"/>
            <polygon id="Fill-20" fill="#222222" points="322 18 336.721729 18 336.721729 20.7603199 325.126311 20.7603199 325.126311 29.8579572 335.1005 29.8579572 335.1005 32.6157948 325.126311 32.6157948 325.126311 42.2396801 337 42.2396801 337 45 322 45"/>
            <path d="M257.372383,32.4531164 L253.253114,32.4531164 L253.253114,20.6409266 L256.83859,20.6409266 C261.489133,20.6409266 264.785052,21.1671263 264.785052,26.5259239 C264.785052,30.8695532 261.738404,32.4531164 257.372383,32.4531164 Z M265.102306,36.5286817 C264.480387,35.1709873 264.08256,34.4834528 263.221442,34.0590182 C266.24291,32.7311087 268.123774,30.0777716 268.123774,26.0394374 C268.123774,20.7600662 264.661675,18 258.895706,18 L250,18 L250,45 L253.253114,45 L253.253114,35.0518478 L257.94898,35.0518478 C258.283859,35.0518478 258.611185,35.0394374 258.933475,35.0195808 L258.888153,35.0394374 C260.572621,35.0394374 261.355685,36.1241037 262.055659,37.5835632 L265.540419,44.9900717 L269,44.9900717 L265.102306,36.5286817 Z" id="Fill-22" fill="#222222"/>
            <path d="M139.825303,30.62631 L139.825303,23.4804192 L141.729983,23.4804192 C144.231542,23.4804192 145.660659,24.2523442 145.660659,27.0124104 C145.660659,29.8146718 143.993761,30.62631 141.37331,30.62631 L139.825303,30.62631 Z M150.392028,36.4492554 C149.996534,35.4812466 149.368111,34.7142857 148.662045,34.3469388 C151.168458,32.808053 152.684922,30.2192499 152.684922,26.5681191 C152.684922,20.9635962 148.914385,18 142.683536,18 L133,18 L133,45 L139.825303,45 L139.825303,36.0273028 L141.581976,36.0273028 C142.499133,36.0918367 143.083882,36.6081081 143.493934,37.5562603 L146.696707,44.9751793 L154,44.9751793 L150.392028,36.4492554 Z" id="Fill-24" fill="#222222"/>
            <path d="M342.529187,20.3031026 C343.015636,20.3031026 343.443711,20.2553699 343.443711,19.6945107 C343.443711,19.2267303 342.97672,19.1694511 342.587561,19.1694511 L341.804378,19.1694511 L341.804378,20.3031026 L342.529187,20.3031026 Z M341.804378,22.5011933 L341.157401,22.5011933 L341.157401,18.627685 L342.653231,18.627685 C343.606671,18.627685 344.09312,18.9546539 344.09312,19.7422434 C344.09312,20.4439141 343.655316,20.7326969 343.064281,20.7995227 L344.170952,22.5011933 L343.436414,22.5011933 L342.414871,20.8448687 L341.804378,20.8448687 L341.804378,22.5011933 Z M342.509729,17.6085919 C340.965254,17.6085919 339.763725,18.797136 339.763725,20.5011933 C339.763725,22.0906921 340.812022,23.3914081 342.509729,23.3914081 C344.037179,23.3914081 345.238707,22.2124105 345.238707,20.5011933 C345.238707,18.797136 344.037179,17.6085919 342.509729,17.6085919 Z M342.509729,24 C340.459347,24 339,22.4916468 339,20.5011933 C339,18.3937947 340.622307,17 342.509729,17 C344.380125,17 346,18.3937947 346,20.5011933 C346,22.6038186 344.380125,24 342.509729,24 Z" id="Fill-26" fill="#222222"/>
        </g>
    </g>
</svg>

<?xml version="1.0" encoding="UTF-8"?>
<svg width="346px" height="61px" version="1.1" viewBox="0 0 346 61" xmlns="http://www.w3.org/2000/svg" xmlns:xlink="http://www.w3.org/1999/xlink">
 <!-- Generator: Sketch 51.2 (57519) - http://www.bohemiancoding.com/sketch -->
 <title>Group 28</title>
 <desc>Created with Sketch.</desc>
 <defs>
  <polygon id="path-1" points="9.8571e-4 0.059456 67.25 0.059456 67.25 61 9.8571e-4 61"/>
 </defs>
 <g id="Page-1" fill="none" fill-rule="evenodd">
  <g id="Group-28">
   <g id="Group-3">
    <mask id="mask-2" fill="white">
     <use xlink:href="#path-1"/>
    </mask>
    <path id="Fill-1" d="m35.984 61h-14.867c-3.068 0-5.9266-1.6616-7.4619-4.3326l-12.509-21.802c-1.5279-2.6759-1.5279-5.9966 0-8.6701l12.509-21.799c1.5328-2.6759 4.3938-4.3375 7.4619-4.3375h25.012c3.068 0 5.9266 1.6616 7.4643 4.3375l12.506 21.799c1.5328 2.671 1.5328 5.9942 0 8.6701l-3.2356 5.1906c-1.5057 2.6263-4.3667 4.2854-7.4372 4.2854h-14.884l8.1371-13.824-7.5284-13.114h-15.059l-7.5309 13.124 17.422 30.472z" fill="#FE5000" mask="url(#mask-2)"/>
   </g>
   <path id="Fill-4" d="m91.51 30.626c2.6599 0 4.356-0.81164 4.356-3.6139 0-2.7601-1.4545-3.532-3.9936-3.532h-1.9352v7.1459h1.5728zm-1.5728 14.374h-6.937v-27h9.841c6.3281 0 10.159 2.9636 10.159 8.5656 0 6.2945-4.5557 9.4617-11.007 9.4617h-2.056v8.9727z" fill="#222"/>
   <path id="Fill-6" d="m113.85 18v17.349c0 3.0309 1.5543 3.9477 3.7444 3.9477 2.0732 0 3.5471-1.2338 3.5471-3.7478v-17.549h6.8555v18.346c0 5.3863-4.3048 8.6538-10.561 8.6538-6.8944 0-10.439-2.7895-10.439-9.2512v-17.749h6.853z" fill="#222"/>
   <polygon id="Fill-8" points="158 18 175.72 18 175.72 24.092 165 24.092 165 28.19 174.21 28.19 174.21 34.281 165 34.281 165 38.911 176 38.911 176 45 158 45" fill="#222"/>
   <path id="Fill-10" d="m182.35 39.88c1.265 0.85217 4.1619 2.318 7.3881 2.318 2.7347 0 5.7114-0.85714 5.7114-5.0012 0-3.2497-2.8569-4.3056-6.1181-5.2-3.9199-1.0559-7.7574-2.5193-7.7574-7.518 0-4.5118 3.5107-7.4783 8.6133-7.4783 3.6729 0 6.8966 1.7068 8.8154 3.6174l-1.7965 2.1516c-2.1209-1.8261-4.4913-3.0062-7.0613-3.0062-2.2856 0-5.2223 0.9764-5.2223 4.3901 0 3.2099 2.7746 4.1441 6.2853 5.2025 3.7552 1.1776 7.5902 2.6012 7.5902 7.7193 0 5.0807-3.4283 7.9255-9.1422 7.9255-3.9199 0-7.5503-1.5851-8.6532-2.4795l1.3474-2.641z" fill="#222"/>
   <polygon id="Fill-12" points="221 18 221 20.76 212.99 20.76 212.99 45 209.85 45 209.85 20.76 202 20.76 202 18" fill="#222"/>
   <path id="Fill-14" d="m234.22 42.277c5.7687 0 7.5611-5.5677 7.5611-11.093 0-4.795-1.5516-11.421-7.6025-11.421-5.8052 0-7.9551 5.6497-7.9551 11.178 0 5.3615 1.4325 11.337 7.9965 11.337m-0.31859 2.723c-6.8023 0-10.9-4.6733-10.9-13.94 0-10.442 5.8879-14.06 11.299-14.06 5.7298 0 10.701 3.6969 10.701 14.06 0 9.3068-4.2949 13.94-11.1 13.94" fill="#222"/>
   <path id="Fill-16" d="m278.82 34.078h9.0859l-4.5851-13.193-4.5008 13.193zm-6.8169 10.922 9.4926-27h3.8139l9.6935 27h-3.3675l-2.9584-8.3232h-10.628l-2.8815 8.3232h-3.1642z" fill="#222"/>
   <path id="Fill-18" d="m315.92 42.523c-2.1747 1.5031-5.2966 2.477-8.735 2.477-6.9155 0-11.185-4.5093-11.185-13.938 0-10.524 5.9297-14.062 11.185-14.062 2.6894 0 6.1254 0.85466 8.8148 4.3901l-2.2544 1.8286c-1.7373-2.1118-3.7936-3.4559-6.599-3.4559-4.9801 0-7.9449 4.1863-7.9449 11.014 0 7.3168 2.5299 11.585 8.2614 11.585 2.0563 0 4.3856-0.73292 5.3353-1.4261v-8.0422h-5.9708v-2.7652h9.0927v12.395z" fill="#222"/>
   <polygon id="Fill-20" points="322 18 336.72 18 336.72 20.76 325.13 20.76 325.13 29.858 335.1 29.858 335.1 32.616 325.13 32.616 325.13 42.24 337 42.24 337 45 322 45" fill="#222"/>
   <path id="Fill-22" d="m257.37 32.453h-4.1193v-11.812h3.5855c4.6505 0 7.9465 0.5262 7.9465 5.885 0 4.3436-3.0466 5.9272-7.4127 5.9272zm7.7299 4.0756c-0.62192-1.3577-1.0197-2.0452-1.8809-2.4697 3.0215-1.3279 4.9023-3.9812 4.9023-8.0196 0-5.2794-3.4621-8.0394-9.2281-8.0394h-8.8957v27h3.2531v-9.9482h4.6959c0.33488 0 0.6622-0.01241 0.9845-0.032267l-0.045322 0.019857c1.6845 0 2.4675 1.0847 3.1675 2.5441l3.4848 7.4065h3.4596l-3.8977-8.4614z" fill="#222"/>
   <path id="Fill-24" d="m139.83 30.626v-7.1459h1.9047c2.5016 0 3.9307 0.77192 3.9307 3.532 0 2.8023-1.6669 3.6139-4.2873 3.6139h-1.548zm10.567 5.8229c-0.39549-0.96801-1.0239-1.735-1.73-2.1023 2.5064-1.5389 4.0229-4.1277 4.0229-7.7788 0-5.6045-3.7705-8.5681-10.001-8.5681h-9.6835v27h6.8253v-8.9727h1.7567c0.91716 0.064534 1.5019 0.58081 1.912 1.529l3.2028 7.4189h7.3033l-3.608-8.5259z" fill="#222"/>
   <path id="Fill-26" d="m342.53 20.303c0.48645 0 0.91452-0.047733 0.91452-0.60859 0-0.46778-0.46699-0.52506-0.85615-0.52506h-0.78318v1.1337h0.72481zm-0.72481 2.1981h-0.64698v-3.8735h1.4958c0.95344 0 1.4399 0.32697 1.4399 1.1146 0 0.70167-0.4378 0.99045-1.0288 1.0573l1.1067 1.7017h-0.73454l-1.0215-1.6563h-0.61049v1.6563zm0.70535-4.8926c-1.5445 0-2.746 1.1885-2.746 2.8926 0 1.5895 1.0483 2.8902 2.746 2.8902 1.5274 0 2.729-1.179 2.729-2.8902 0-1.7041-1.2015-2.8926-2.729-2.8926zm0 6.3914c-2.0504 0-3.5097-1.5084-3.5097-3.4988 0-2.1074 1.6223-3.5012 3.5097-3.5012 1.8704 0 3.4903 1.3938 3.4903 3.5012 0 2.1026-1.6199 3.4988-3.4903 3.4988z" fill="#222"/>
  </g>
 </g>
</svg>
